X:965
T:Musical Priest, The
R:reel
H:Usually played in Bm, see #44
D:Eliot Grasso & Dave Cory: North by NorthWest
Z:id:hn-reel-965
M:C|
K:Ador
EAAG ABcA | BAGB dBAG | EAAG ABcA |1 BAGB ~A2GF :|2 BAGB ~A3B ||
ceAG FAdc | BGdG BdGB | ceAB cdef | gedB ~A3B |
ceAG FAdc | BG~G2 BdGB | c2AB cdef | gedB ~A3B ||
cAce agfa | gedB GBdB | cAce agfa | ged=f eAAB |
cAce agfd | cedB DGBd | cABG Aceg | gedB cAAG ||

